Pods/ProtonCore-UIFoundations/libraries/UIFoundations/Sources/Assets.xcassets/Images/IconSet/ic-rocket.imageset/ic-rocket.svg

<svg width="24" height="24" viewBox="0 0 24 24" fill="none" xmlns="http://www.w3.org/2000/svg">
<path fill-rule="evenodd" clip-rule="evenodd" d="M15.1361 8.23769C15.5394 9.49816 15.75 10.8228 15.75 12.1684V13.5V18H8.25V13.5V12.1684C8.25 10.8228 8.46055 9.49816 8.86393 8.23769C8.90806 8.24577 8.95353 8.25 9 8.25H15C15.0465 8.25 15.0919 8.24577 15.1361 8.23769ZM14.5566 6.75C13.9312 5.39738 13.0705 4.14807 12 3.06368C10.9295 4.14807 10.0688 5.39738 9.44341 6.75H14.5566ZM15.75 19.5H8.25H6.75H4.5H3V18V17.25C3 14.8717 4.58138 12.8628 6.75 12.2174V12.1684C6.75 8.3122 8.2986 4.61391 11.0551 1.88715C11.577 1.37095 12.423 1.37095 12.9449 1.88715C15.7014 4.61391 17.25 8.3122 17.25 12.1684V12.2174C19.4186 12.8628 21 14.8717 21 17.25V18V19.5H19.5H17.25H15.75ZM17.25 18H19.5V17.25C19.5 15.7123 18.5744 14.3907 17.25 13.812V18ZM4.5 17.25C4.5 15.7123 5.42557 14.3907 6.75 13.812V18H4.5V17.25ZM12.75 12C12.75 12.4142 12.4142 12.75 12 12.75C11.5858 12.75 11.25 12.4142 11.25 12C11.25 11.5858 11.5858 11.25 12 11.25C12.4142 11.25 12.75 11.5858 12.75 12ZM14.25 12C14.25 13.2426 13.2426 14.25 12 14.25C10.7574 14.25 9.75 13.2426 9.75 12C9.75 10.7574 10.7574 9.75 12 9.75C13.2426 9.75 14.25 10.7574 14.25 12ZM8.25 21.75C8.25 21.3358 8.58579 21 9 21H15C15.4142 21 15.75 21.3358 15.75 21.75C15.75 22.1642 15.4142 22.5 15 22.5H9C8.58579 22.5 8.25 22.1642 8.25 21.75Z" fill="#0C0C14"/>
</svg>

<svg xmlns="http://www.w3.org/2000/svg" width="24" height="24" viewBox="0 0 24 24">
  <g class="ic-rocket">
    <path fill-rule="evenodd" d="M15.136 8.238a12.9 12.9 0 0 1 .614 3.93V18h-7.5v-5.832c0-1.345.21-2.67.614-3.93.044.008.09.012.136.012h6a.756.756 0 0 0 .136-.012Zm-.58-1.488A13.032 13.032 0 0 0 12 3.064 13.032 13.032 0 0 0 9.443 6.75h5.114ZM15.75 19.5H3v-2.25a5.252 5.252 0 0 1 3.75-5.033v-.049a14.46 14.46 0 0 1 4.305-10.28 1.347 1.347 0 0 1 1.89 0 14.46 14.46 0 0 1 4.305 10.28v.05A5.252 5.252 0 0 1 21 17.25v2.25h-5.25Zm1.5-1.5h2.25v-.75a3.75 3.75 0 0 0-2.25-3.438V18ZM4.5 17.25a3.75 3.75 0 0 1 2.25-3.438V18H4.5v-.75ZM12.75 12a.75.75 0 1 1-1.5 0 .75.75 0 0 1 1.5 0Zm1.5 0a2.25 2.25 0 1 1-4.5 0 2.25 2.25 0 0 1 4.5 0Zm-6 9.75A.75.75 0 0 1 9 21h6a.75.75 0 0 1 0 1.5H9a.75.75 0 0 1-.75-.75Z" class="Icon"/>
  </g>
</svg>
